X:7812
T:Jacksons
M:4/4
L:1/8
S:Tommy Peoples, Donegal (fiddle)
R:Reel
D:From a 70's demo tape
N:As played
Z:Bernie Stocks
K:D
A3B AFDF | (3.B.B.AFD GECE | A3F3d BdAG | FD(3.D.D.D EFGB |
(3.A.A.FAB AFDF | (3.B.B.AFD GECE | A3F3d BdAG | FD(3.D.D.D FDEG || 
FD(3.D.D.D FD(3.D.D.D | FD(3.D.D.D GECE | FD(3.D.D.D FDGF | EDCD EFDG | 
FD(3.D.D.D FD(3.D.D.D | FD(3.D.D.D GECE | FD(3.D.D.D FDGF | EDCD EFGA || 
df(3.f.f.f df{a}fe | ~d3B AFDA | ce(3.e.e.e ceec | A-B~B2 AFDA |
df(3.f.f.f df{a}fe | ~d3B AFDA | ce(3.e.e.e faec | d-cce d3A :|
